X:3940
T:Mairi's Wedding (aka Lewis Bridal Song)
O:england
M:4/4
L:1/4
R:March
K:D
f|"D"A>A A B|"D"d e f2|"G"e d B d|"A"f e f a|"D"A>A A B|"D"d e f2|"G"e d
B G |"A"A2 A|
|Z|"D"a>a a b |"Bm"a g f2|"G"e d B d|"A"f e f2|"D"a>a a b |"D"a g f2|"G"
e d B G |"A"A2 A:|


